X:1
T:Title
%%score { ( 1 3 ) | ( 2 4 ) } { ( 5 7 ) | ( 6 8 ) } ( 9 10 ) { ( 11 14 ) | ( 12 13 ) }
L:1/8
Q:1/4=99
M:4/4
K:D
V:1 treble nm="Grand Piano, Swell"
V:3 treble 
V:2 bass 
V:4 bass 
V:5 treble nm="Grand Piano, Great"
V:7 treble 
V:6 bass 
V:8 bass 
V:9 bass nm="Grand Piano, Pedal"
V:10 bass 
V:11 treble nm="Grand Piano, Stops &amp; Shades "
V:14 treble 
V:12 treble 
V:13 treble 
V:1
 z8 | z2 z F- F2 z2 | z4 z2 E2 | FA B2 A2 (3:2:2F E2 | z4 z2 z D- | D2 z z/ F/- F2 z2 | z4 B2 z2 | %7
 FE D4 FE | D2 D2 FA .E2 | z4 B2 A2 | z8 | z2 c2 z2 z A | F2 A z/16 B3/16 z/4 .c/ [Fd]2 [Ac]2 | %13
 .B2 d4 .F.E | z4 .F2 z2 | E2 FA B2 A2 | FE D6 | F2[K:bass] z2[K:treble] z4 | %18
 A2 .E2 z G,/F/- [FA]2 | B2 A2 FE D2- | D2 (3:2:2F E2 D2 D2 | (3:2:2F A2 E2 E2 FA | z8 | %23
 z2 z z/4 c3/4 z4 | BABA [DF]2 .[DA].[GB] | z2 [Ac]2 G2 z2 | z8 | FA .E2 E2 FA | %28
 B2 A2 (3:2:2F E2 D2- | D4 z FED- | D2 .D>F (3z/ A3/2E- E2 | E.G,.FA B2 A2 | FE D4 FE | z4 z2 E2 | %34
 E2 FA [B,B]2 A2 | FE D4 .A.B | [D-A-d]2 [D-Ac]2 [D-B][D-A][D-B][DA] | %37
 F2 A (3:2:4z/4 B/4c/ z/ d2 c2 | z2 d4 z2 | .D2 z G, FAEB, | z G,FA B2 A2 | z2[K:bass] D2 D4- | %42
 D8- | D2 z2 z4 |] %44
V:2
 z8 | z2 z F,- F,2 z2 | F,2- [F,-D][F,D] [E,C]4 | [F,D-]2 [G,B,D-]2 [A,-D]3 [G,A,-C] | %4
 [F,A,]4 z D[G,C]F,- | F,2 F, z/ D/ [F,D]2 .[E,C]2 | [E,C]2 z2 D4 | .D2 z2 z2 .D2 | z4 .D2 z2 | %9
 [E,C]2 D6 | z8 | D8[K:treble][K:bass] | z8 | G2 z2 z2[K:bass] .D2 | z4 A,4- | A,4 z2 F,2 | z8 | %17
 z A,-[G,A,-C][D,F,A,]- [D,F,A,]2 [D,F,A,] z/ D/ | (5:4:4[F,D]2 C2 C3 [F,D]3 | %19
 D2- [A,-D]2 [A,-D][G,A,-C] [F,A,]2- | [F,A,]2 .D[G,C] F,2 F,2 | %21
 (3:2:2D [F,DF]2 .[E,C]2 A,2- [D,A,-D][F,A,D] | [G,B,D]2 [F,D]2 D[G,C] F,2- | %23
 F,2[K:treble] A,-[E,A,-] [A,-DF]2 [A,A]2 | %24
 .[G,B,G][F,A,F][G,B,G][K:bass][F,A,-] [D,A,-]2 [F,A,-]A,/-[A,-c]/ | [D,A,-]2 A,-[G,-A,] G,2 D,2- | %26
 D,2 D[G,C] [D,F,]2 [D,F,A,]2 | D[F,D] .[E,C]2 [E,C]2 [D,D-][F,D] | %28
 D2- [A,-D]2 [A,-D][G,A,-C] [F,A,]2- | [F,A,]4 z A,-[G,A,-C][F,A,] | %30
 F,3- F,/-[D,-F,-D]/ [D,F,D]2 [E,-C]2 | [E,C] z/ [F,-D]/ [F,D]2 D2- [A,D]2- | %32
 [A,-D][G,A,-C] [F,A,-]4 [A,-D][G,A,-C] | [F,A,]3/2-[F,A,-]/4<[E,A,]/4 z2 D-[G,B,D] C2- | %34
 C2 [D,D-][F,D-] [G,D-]2 [F,D]2 | D[G,C] z2 F,2 [E,C]->[E,Cc] | %36
 F,2[K:treble] C2 .[G,B,G][F,A,F][G,B,G][K:bass]F | %37
 [D,D]2 .[A,DF]2[K:treble] [B,D-F-=c]2 [A,CD-F]2 | %38
 [D-G]/D/4-[CDEG]/4-[CDEG] [DFA]4[K:bass] .[B,D][A,-C] | [D,F,A,]3 E, A,2- [E,A,C]2 | %40
 C2 [F,-D][F,=CD] D2- [A,-D]2 | [A,-D][G,A,-] [D,A,-]2 A,2 [B,,G,]2- | [B,,G,]4 F,4- | F,2 z2 z4 |] %44
V:3
 x8 | z4 E2 .D2 | D2 .FA E2 z G, | x8 | D4 z F .E2 | A,2- [A,D]2 A2 .E2 | E2 FA z B, A2 | x8 | x8 | %9
 E2 FA z B, A,2- | (3:2:4[A,-F]2 [A,-E]A,- [A,D]2- [A,D]2 z/ A.B/ | %11
 .c<.[EFde] z G- [GB]AB z/16 F3/16-F3/4 | z4 D4- | D A3- A2 z2 | .D2 [A,D]2 D-[DA] .E2 | x8 | x8 | %17
 z[K:bass] F, .E2[K:treble] .D2 DF | z4 E2 z2 | x8 | x8 | x8 | B2 A2 FE D2- | %23
 D2 A.B/d/- [D,d]2 [F,c]2 | x8 | [DFd]2 D2- [B,DB][CA-] [DFAd]2- | [DFAd]2 FE D2 D2 | x8 | x8 | %29
 x8 | x8 | x8 | x8 | D3/2-D/4<G,/4 D2 (3:2:2F A2 z z/ B,/ | z4 z2 A,2- | A,8- | A,4 z4 | x8 | %38
 .B.A z2 F,2 FE | z2 D4 z2 | E2 z2 z4 | .F.[CE][K:bass] F,4 B,2- | B,4 A,2- [A,,A,]2- | %43
 [A,,A,]2 z2 z4 |] %44
V:4
 x8 | z4 E,2 .D,2 | [D,A,]2 A,6- | A,2 z2 F,2 z2 | z4 z A,3- | A,2 z z/ A,/- A,4 | %6
 A,2- [D,A,-D][F,A,D] z G, [F,A,]2 | A,-[G,A,-C] [F,A,]4 A,-[G,A,-C] | %8
 [F,A,]2 [F,A,]2 A,-[F,A,-D] [E,A,C]2 | A,2- [D,A,-][F,A,] G,2 F,2 | %10
 (3:2:4D2 [G,-C]G, F,2- F,2- (3F,[F,A,-D][E,A,-] | %11
 [D,A,-]2 [F,A,F]2 [G,B,][K:treble][F,A,F][G,B,G][K:bass][F,A,-] | %12
 [D,A,-D]2 [F,A,-DF][E,A,-] [D,A,-]2 [F,A,]2 | .[G,B,][A,-C] [A,DF]4[K:bass] A,-[G,A,-C] | %14
 [F,A,]2 F,2 z F, .[E,C]2 | [E,C]2 [D,D-][F,D-] [G,B,D-]2 [A,D]2- | [A,-D][G,A,-C] [F,A,]6 | %17
 z [D,D] z2 z2 z z/ A,/- | A,8 | [G,B,]2 F,2 z4 | z2 A,4 A,2- | A,4 [E,C]2 z2 | z2 A,6- | %23
 A,2[K:treble] .[F,D]2 z2 D2- | D4[K:bass] z2 z E, | z2 F,2 A,4- | A,2 A,4 z2 | A,8 | %28
 [G,B,]2 F,2 z4 | z4 z [D,D] z2 | A,8- | A,4 [G,B,]2 F,2 | x8 | z2 [F,A,]4 [E,A,]2 | A,4 z4 | %35
 z4 z2 .EG, | z4[K:treble] z2 z[K:bass] [F,A,]- | [F,-A,]2 F,4[K:treble] z2 | %38
 [G,B,]/>A,/- A,3- A,2[K:bass] G,2 | z4 .F,2 z2 | A,4 [G,B,]2 F,2 | z4 D,4- | D,8- | D,2 z2 z4 |] %44
V:5
 z8 | z2 z F- F2 z2 | z4 z2 E2 | FA B2 A2 (3:2:2F E2 | z8 | z2 z z/ F/- F2 z2 | z4 B2 z2 | %7
 FE D4 FE | D2 D2 FA .E2 | z4 B2 A2 | z8 | (3:2:5.c[EF-d-e][Fd-]d c2 G/B/AB z/16 F3/16-F3/4 | %12
 [DF]2 [DFA] z/16 B3/16 z/4 .c/ [Fd]2 [Ac]2 | .B2 d4 .F.E | z4 .F2 z2 | E2 FA B2 A2 | FE D6 | %17
 F2[K:bass] z2 z4[K:treble] | A2 .E2 z G,/-[G,F-]/ [FA]2 | B2 A2 FE D2- | D2 FE D2 D2 | %21
 (3:2:2F A2 E2 E2 FA | z8 | z2 z z/4 c3/4 z2 [Ac]2 | z2 z A z4 | z2 [Ac]2 G2 z2 | z8 | %27
 FA .E2 E2 FA | B2 A2 (3:2:2F E2 D2- | D4 z F (3:2:2E2 D- | D2 .D>F (3z/ A3/2[CE]- [CE]2 | %31
 E.G,.FA B2 A2 | FE D4 FE | z4 z2 E2 | E2 FA [B,B]2 A2 | FE D4 .A.B | %36
 [D-A-d]2 [D-Ac]2 [D-B][D-A][D-B][DA] | F2 A (3:2:4z/4 B/4c/ z/ d2 c2 | z2 d4 z2 | .D2 z G, FAEB, | %40
 z G,FA B2 A2 | z2[K:bass] D2 D4- | D8- | D2 z2 z4 |] %44
V:6
 z8 | z2 z F,- F,2 z2 | F,2- [F,-D][F,D] [E,C]4 | [F,D-]2 [G,B,D-]2 [A,-D]3 [G,A,-C] | %4
 [F,A,]4 z D[G,C]F,- | F,2 [F,A,] z/ D/ [F,D]2 .[E,C]2 | [E,C]2 z2 D4 | .D2 z2 z2 .D2 | z4 .D2 z2 | %9
 [E,C]2 D6 | z8 | D8 | z8 | G2 z2 z2[K:bass] .D2 | z4 A,4- | A,4 z2 F,2 | z8 | D2 z2 z2 z z/ D/ | %18
 z8 | D4 z4 | z2 .D2 z2 A,2- | A,4 [E,C]2 z2 | [G,B,D]2 [F,D]2 D[G,C] F,2- | %23
 F,2 A,-[E,A,-] [A,-DF]2 [F,A,]2 | G,F,G,F, D,2 F, z/[K:treble] .c/ | z2 F,2 A,4- | A,2 A,4 z2 | %27
 D[F,D] .[E,C]2 [E,C]2 [D,D-][F,D] | D2- [A,-D]2 [A,-D][G,A,-C] [F,A,]2- | %29
 [F,A,]4 z A,-[G,A,-C][F,A,] | F,3- F,/-[D,-F,-D]/ [D,F,]-<[D,F,D] E,2- | %31
 [E,C] z/ [F,D]/- [F,-D]<[F,D] D2- [A,D]2- | [A,-D][G,A,-C] [F,A,-]4 [A,-D][G,A,-C] | %33
 [F,A,]3/2-[F,A,-]/4<[E,A,]/4 z2 D-[G,B,D] C2- | C2 [D,D-][F,D-] [G,D-]2 [F,D]2 | %35
 D[G,C] z2 F,2 [E,C]->[E,Cc] | F,2[K:treble] C2 .[G,B,G][F,A,F][G,B,G][K:bass]F | %37
 [D,D]2 .[A,DF]2[K:treble] [B,D-F-=c]2 [A,CD-F]2 | %38
 [D-G]/D/4-[CDEG]/4-[CDEG] [DFA]4[K:bass] .[B,D][A,-C] | [D,F,A,]3 E, A,2- [E,A,C]2 | %40
 C2 [F,-D][F,=CD] D2- [A,-D]2 | [A,-D][G,A,-] [D,A,-]2 A,2 [B,,G,]2- | [B,,G,]4 F,4- | F,2 z2 z4 |] %44
V:7
 x8 | z4 E2 .D2 | D2 .FA E2 z G, | x8 | D4 z FED- | D2 .D2 A2 .E2 | E2 FA z B, A2 | x8 | x8 | %9
 E2 FA z B, A,2- | (3:2:4[A,-F]2 [A,-E]A,- [A,D]2- [A,D]2 z/ A.B/ | z4 z2 z A | z4 D4- | %13
 D A3- A2 z2 | .D2 [A,D]2 D-[DA] .E2 | x8 | x8 | z[K:bass] F,ED- D2 D[K:treble]F | z4 E2 z2 | x8 | %20
 x8 | x8 | B2 A2 FE D2- | D2 A.B/d/- [D,d]2 D2- | %24
 [B,D-GB][A,D-FA][B,D-GB][A,-D] [A,-DF]2 [A,-DA][A,-GB] | [A,-DFd]2 [A,D-]2 [B,DB][CA-] [DFAd]2- | %26
 [DFAd]2 FE D2 D2 | x8 | x8 | x8 | x8 | x8 | x8 | D3/2-D/4<G,/4 D2 FA z z/ B,/ | z4 z2 A,2- | %35
 A,8- | A,4 z4 | x8 | .B.A z2 F,2 FE | z2 D4 z2 | E2 z2 z4 | .F.[CE][K:bass] F,4 B,2- | %42
 B,4 A,2- [A,,A,]2- | [A,,A,]2 z2 z4 |] %44
V:8
 x8 | z4 E,2 .D,2 | [D,A,]2 A,6- | A,2 z2 F,2 z2 | z4 z A,3- | A,2 z z/ A,/- A,4 | %6
 A,2- [D,A,-D][F,A,D] z G, [F,A,]2 | A,-[G,A,-C] [F,A,]4 A,-[G,A,-C] | %8
 [F,A,]2 [F,A,]2 A,-[F,A,-D] [E,A,C]2 | A,2- [D,A,-][F,A,] G,2 F,2 | %10
 (3:2:4D2 [G,-C]G, F,2- F,2- (3F,[F,A,-D][E,A,-] | %11
 [D,A,-]2 [F,A,F]2 [G,B,][F,A,F]/-[F,G,-A,B,-FG-]/ [G,A,-B,G][F,A,-] | %12
 [D,A,-]2 [F,A,-][E,A,-] [D,A,-]2 [F,A,]2 | .[G,B,][A,-C] [A,DF]4[K:bass] A,-[G,A,-C] | %14
 [F,A,]2 F,2 z F, .[E,C]2 | [E,C]2 [D,D-][F,D-] [G,B,D-]2 [A,D]2- | [A,-D][G,A,-C] [F,A,]6 | %17
 A,-[D,A,-][G,A,-C][D,F,A,]- [D,F,A,]2 [D,F,A,] z/ A,/- | %18
 (5:4:4[F,A,-D]2 [A,-C]2 [A,-C]3 [F,A,D]3 | [G,B,]2 [F,A,-]2 [A,-D][G,A,-C] [F,A,]2- | %20
 [F,A,]2 A,-[G,A,-C] [F,A,]2 F,2 | (3:2:2D [F,DF]2 .[E,C]2 A,2- [D,A,-D][F,A,D] | z2 A,6- | %23
 A,2 .[F,D]2 z4 | z4 z2 z E,[K:treble] | D,2 z G,- G,2 D,2- | D,2 D[G,C] [D,F,]2 [D,F,A,]2 | A,8 | %28
 [G,B,]2 F,2 z4 | z4 z [D,D] z2 | A,8- | A,4 [G,B,]2 F,2 | x8 | z2 [F,A,]4 [E,A,]2 | A,4 z4 | %35
 z4 z2 .EG, | z4[K:treble] z2 z[K:bass] [F,A,]- | [F,-A,]2 F,4[K:treble] z2 | %38
 [G,B,]/>A,/- A,3- A,2[K:bass] G,2 | z4 .F,2 z2 | A,4 [G,B,]2 F,2 | z4 D,4- | D,8- | D,2 z2 z4 |] %44
V:9
 z8 | z8 | .D,2 .D,D, z/ .G,,3/2 A,,2 | D,F,, G,,2 .D,.F,, A,,2 | D,4 z D, (3.A,, z D,- | %5
 D,2 .D,3/2 z/8 D,3/8 F,,2 .A,,2 | .A,,2 D,F, G,2 D,2 | z2 D,4 z2 | .D,2 .D,2 (3:2:2D, F,,2 .A,,2 | %9
 A,,2 .D,F, .G,2 D,2 | A,,2 z2 D,2 z/ F,.E,/ | (3z D,3 F,2 .G,.D, .G,3/4 z/8 z/16 F,/16-F, | %12
 D,2 F,.E, D,2 F,2 | G,A, D,4 D,.A,, | D,4 D,F,, .A,,2 | A,,3/2-A,,3/8-A,,/16A,,/16 z F, .G,2 D,2 | %16
 A,,2 z2 D,4 | z D, .[A,,D,]2 D,4- | (5:4:6D,2 A,,2 A,,2 G,,F,, D,2 | G,,2 D,2 A,,2 D,2- | %20
 D,2 D,.A,, D,2 D,2 | (3:2:2D, F,,2 .A,,2 .A,,2 D,F, | .G,2 D,2 A,,2 z/8 A,,3/8-A,,3/2 | %23
 z2 F,.E, D,2 F,2 | .G,D,/ z/4 z/8 G,/8-G,.F, D,2 F,.E, | D,2 F,2 G,A, D,2- | D,2 D,A,, D,2 D,2 | %27
 D,F,, A,,4 .D,F, | .G,2 D,2 A,,2 D,2- | D,4 z D, (3:2:4z/ A,,/ z D,- | %30
 D,3- D,/-[D,,D,]/- [D,,D,]2 A,,2- | (3:2:4A,,G,, F,,2 D,2 G,,2 D,2 | z2 D,6 | z4 z2 A,,2 | %34
 .C,A,,D,F,, G,,2 D,2 | A,,2 D,4 A,, z/8 .A,,3/8 z/ | F,,4 G,,F,, D,2 | D,,2 D,C, B,,2 A,,2 | %38
 G,,A,, D,6 | D,,3 E,, F,,G,,A,,B,, | A,,G,,F,,D, z/16 D,3/16-D,3/4 z D,2 | A,,2 D,4 G,,2- | %42
 G,,4 D,,4- | D,,2 z2 z4 |] %44
V:10
 x8 | x8 | z4 .A,,2 z2 | x8 | x8 | x8 | x8 | A,,2 z/8 z/16 A,,/16-A,,3/4 z z2 D,A,, | x8 | x8 | %10
 x8 | x8 | x8 | x8 | x8 | z z/ z/4 z/8 z/16 D,/16- D,2 z4 | x8 | x8 | x8 | x8 | x8 | x8 | %22
 z4 z2 z/8 D,3/8-D,3/2- | D,2 z2 z4 | x8 | x8 | x8 | x8 | x8 | x8 | x8 | x8 | A,,2 z2 z2 D,,2- | %33
 D,,->[D,,E,,] F,,2- F,,G,, z z/ B,,/ | x8 | z4 z2 z G,, | x8 | x8 | x8 | x8 | %40
 z4 z/16 G,,3/16-G,,3/4-G,, z2 | x8 | x8 | x8 |] %44
V:11
 z8 | g'8- | g'8- | g'8- | g'8- | g'8- | g'8- | g'8- | g'8- | g'8- | g'4 g'4- | g'8- | g'8- | %13
 g'8- | g'8- | g'8- | g'8- | g'8- | g'8- | g'8- | g'8- | g'8- | g'8- | g'8- | g'8- | g'8- | g'8- | %27
 g'8- | g'8- | g'8- | g'8- | g'8- | g'8- | g'8- | g'8- | g'8- | g'8- | g'8- | g'8- | g'8- | g'8- | %41
 g'8- | g'8- | g'4 z4 |] %44
V:12
 z8 | [=f^fga^ab=c'^c'd'^d'=f'^f']8- | [ffgaabc'c'd'd'f'f']8- | [ffgaabc'c'd'd'f'f']8- | %4
 [ffgaabc'c'd'd'f'f']8- | [ffgaabc'c'd'd'f'f']8- | [ffgaabc'c'd'd'f'f']8- | %7
 [ffgaabc'c'd'd'f'f']8- | [ffgaabc'c'd'd'f'f']8- | [ffgaabc'c'd'd'f'f']8- | %10
 [ffgaabc'c'd'd'f'f']4 [=f^fg=a^ab=c'^c'=d'^d'=f'^f']4- | [ffgaabc'c'd'd'f'f']8- | %12
 [ffgaabc'c'd'd'f'f']8- | [ffgaabc'c'd'd'f'f']8- | [ffgaabc'c'd'd'f'f']8- | %15
 [ffgaabc'c'd'd'f'f']8- | [ffgaabc'c'd'd'f'f']8- | [ffgaabc'c'd'd'f'f']8- | %18
 [ffgaabc'c'd'd'f'f']8- | [ffgaabc'c'd'd'f'f']8- | [ffgaabc'c'd'd'f'f']8- | %21
 [ffgaabc'c'd'd'f'f']8- | [ffgaabc'c'd'd'f'f']8- | [ffgaabc'c'd'd'f'f']8- | %24
 [ffgaabc'c'd'd'f'f']8- | [ffgaabc'c'd'd'f'f']8- | [ffgaabc'c'd'd'f'f']8- | %27
 [ffgaabc'c'd'd'f'f']8- | [ffgaabc'c'd'd'f'f']8- | %29
 [ffgaabc'c'd'd'f'f']4- [=G,,=A,,^D,ffgaabc'c'd'd'f'f']4- | [G,,A,,D,ffgaabc'c'd'd'f'f']8- | %31
 [G,,A,,D,ffgaabc'c'd'd'f'f']8- | [G,,A,,D,ffgaabc'c'd'd'f'f']8- | [G,,A,,D,ffgaabc'c'd'd'f'f']8- | %34
 [G,,A,,D,ffgaabc'c'd'd'f'f']8- | [G,,A,,D,ffgaabc'c'd'd'f'f']8- | [G,,A,,D,ffgaabc'c'd'd'f'f']8- | %37
 [G,,A,,D,ffgaabc'c'd'd'f'f']8- | [G,,A,,D,ffgaabc'c'd'd'f'f']8- | [G,,A,,D,ffgaabc'c'd'd'f'f']8- | %40
 [G,,A,,D,ffgaabc'c'd'd'f'f']8- | [G,,A,,D,ffgaabc'c'd'd'f'f']8- | [G,,A,,D,ffgaabc'c'd'd'f'f']8- | %43
 [G,,A,,D,ffgaabc'c'd'd'f'f']4 z4 |] %44
V:13
 x8 | [=C,,^C,,D,,E,,=F,,^G,,^A,,B,,=C,^C,D,^D,E,=F,B,=C^CD^DG^G=c]8- | %2
 [C,,C,,D,,E,,F,,G,,A,,B,,C,C,D,D,E,F,B,CCDDGGc]8- | %3
 [C,,C,,D,,E,,F,,G,,A,,B,,C,C,D,D,E,F,B,CCDDGGc]8- | %4
 [C,,C,,D,,E,,F,,G,,A,,B,,C,C,D,D,E,F,B,CCDDGGc]8- | %5
 [C,,C,,D,,E,,F,,G,,A,,B,,C,C,D,D,E,F,B,CCDDGGc]8- | %6
 [C,,C,,D,,E,,F,,G,,A,,B,,C,C,D,D,E,F,B,CCDDGGc]8- | %7
 [C,,C,,D,,E,,F,,G,,A,,B,,C,C,D,D,E,F,B,CCDDGGc]8- | %8
 [C,,C,,D,,E,,F,,G,,A,,B,,C,C,D,D,E,F,B,CCDDGGc]8- | %9
 [C,,C,,D,,E,,F,,G,,A,,B,,C,C,D,D,E,F,B,CCDDGGc]8- | %10
 [C,,C,,D,,E,,F,,G,,A,,B,,C,C,D,D,E,F,B,CCDDGGc]8- | %11
 [C,,C,,D,,E,,F,,G,,A,,B,,C,C,D,D,E,F,B,CCDDGGc]8- | %12
 [C,,C,,D,,E,,F,,G,,A,,B,,C,C,D,D,E,F,B,CCDDGGc]8- | %13
 [C,,C,,D,,E,,F,,G,,A,,B,,C,C,D,D,E,F,B,CCDDGGc]8- | %14
 [C,,C,,D,,E,,F,,G,,A,,B,,C,C,D,D,E,F,B,CCDDGGc]8- | %15
 [C,,C,,D,,E,,F,,G,,A,,B,,C,C,D,D,E,F,B,CCDDGGc]8- | %16
 [C,,-C,,-D,,-E,,-F,,-G,,-A,,-B,,-C,-C,-D,-D,E,-F,-B,-C-C-D-D-G-G-c-]8 | %17
 [C,,C,,D,,E,,F,,G,,A,,B,,C,C,D,E,F,B,CCDDGGc]8- | %18
 [C,,C,,D,,E,,F,,G,,A,,B,,C,C,D,E,F,B,CCDDGGc]8- | %19
 [C,,C,,D,,E,,F,,G,,A,,B,,C,C,D,E,F,B,CCDDGGc]8- | %20
 [C,,C,,D,,E,,F,,G,,A,,B,,C,C,D,E,F,B,CCDDGGc]8- | %21
 [C,,C,,D,,E,,F,,G,,A,,B,,C,C,D,E,F,B,CCDDGGc]8- | %22
 [C,,C,,D,,E,,F,,G,,A,,B,,C,C,D,E,F,B,CCDDGGc]8- | %23
 [C,,C,,D,,E,,F,,G,,A,,B,,C,C,D,E,F,B,CCDDGGc]8- | %24
 [C,,C,,D,,E,,F,,G,,A,,B,,C,C,D,E,F,B,CCDDGGc]8- | %25
 [C,,C,,D,,E,,F,,G,,A,,B,,C,C,D,E,F,B,CCDDGGc]8- | %26
 [C,,C,,D,,E,,F,,G,,A,,B,,C,C,D,E,F,B,CCDDGGc]8- | %27
 [C,,C,,D,,E,,F,,G,,A,,B,,C,C,D,E,F,B,CCDDGGc]8- | %28
 [C,,C,,D,,E,,F,,G,,A,,B,,C,C,D,E,F,B,CCDDGGc]8- | %29
 [C,,-C,,-D,,-E,,F,,G,,-A,,-B,,-C,-C,-D,-E,-F,-B,-C-CD-D-G-G-c-]4 [C,,C,,D,,G,,A,,B,,C,C,D,E,F,B,CDDGGc]4- | %30
 [C,,C,,D,,G,,A,,B,,C,C,D,E,F,B,CDDGGc]8- | [C,,C,,D,,G,,A,,B,,C,C,D,E,F,B,CDDGGc]8- | %32
 [C,,C,,D,,G,,A,,B,,C,C,D,E,F,B,CDDGGc]8- | [C,,C,,D,,G,,A,,B,,C,C,D,E,F,B,CDDGGc]8- | %34
 [C,,C,,D,,G,,A,,B,,C,C,D,E,F,B,CDDGGc]8- | [C,,C,,D,,G,,A,,B,,C,C,D,E,F,B,CDDGGc]8- | %36
 [C,,C,,D,,G,,A,,B,,C,C,D,E,F,B,CDDGGc]8- | [C,,C,,D,,G,,A,,B,,C,C,D,E,F,B,CDDGGc]8- | %38
 [C,,C,,D,,G,,A,,B,,C,C,D,E,F,B,CDDGGc]8- | [C,,C,,D,,G,,A,,B,,C,C,D,E,F,B,CDDGGc]8- | %40
 [C,,C,,D,,G,,A,,B,,C,C,D,E,F,B,CDDGGc]8- | [C,,C,,D,,G,,A,,B,,C,C,D,E,F,B,CDDGGc]8- | %42
 [C,,C,,D,,G,,A,,B,,C,C,D,E,F,B,CDDGGc]8- | [C,,C,,D,,G,,A,,B,,C,C,D,E,F,B,CDDGGc]4 z4 |] %44
V:14
 x8 | x8 | x8 | z4 z2 z/ z/4 z/16 .F,,3/16 z | x8 | x8 | x8 | x8 | z2 z z/ z/4 z/8 z/16 F,,/16 z4 | %9
 z z/ z/4 z/8 .F,,/8 z2 z4 | x8 | x8 | x8 | x8 | x8 | x8 | x8 | x8 | x8 | x8 | x8 | %21
 z4 z2 z/ z/4 z/8 .F,,/8 z | x8 | x8 | x8 | x8 | x8 | x8 | z4 z2 .F,,2 | z4 [E^AB]4- | [EAB]8- | %31
 [EAB]8- | [EAB]4- [^D,,EAB]4- | [D,,EAB]8- | [D,,EAB]8- | [D,,EAB]8- | [D,,EAB]8- | [D,,EAB]8- | %38
 [D,,EAB]8- | [D,,EAB]8- | [D,,EAB]8- | [D,,EAB]8- | [D,,EAB]8- | [D,,EAB]4 z4 |] %44

